X: 1746
T: Apples In Winter
R: jig
M: 6/8
K: Eminor
F/A/|:BEE dEE|BAG FGE|DDD FDF|ABc d2c|
BEE BAB|def gfe|fdB AGF|1 GED EFA:|2 GED E2B||
efe edB|~g3 fdB|ded dAF|DFA def|
[1 efe edB|def g2a|bgb afa|ged e2d:|
[2 edB def|gba gfe|fdB AGF|GED E2B||
BdB cec|ded BAF|DDD FDF|ABc ded|
BdB cec|def gfe|def g2a|1 bge edc:|2 bge e2f||
gef gef|gef gfe|def d2A|def fed|
edB def|gba gfe|fdB AGF|1 GED E2f:|2 GED E2||

